X:1
T:Play 2 times round in G
L:1/8
Q:1/4=160
M:6/8
K:G
[K:G] z z G4 |B z B4 | d2 z B2 z | d4 z z :|
 c z c4 | A z A4 | D z F4 | c z A4 |
 G3 ABc | B3 d3 | A2 c B2 A |G2 E D2 z |
 G3 ABc | B3 d3 | A2 c B2 A | G3- G z |]:
